src/assets/img/icons/duotone-icons/Electric/Outlet.svg

<?xml version="1.0" encoding="UTF-8"?>
<svg width="24px" height="24px" viewBox="0 0 24 24" version="1.1" xmlns="http://www.w3.org/2000/svg" xmlns:xlink="http://www.w3.org/1999/xlink">
    <!-- Generator: Sketch 52.2 (67145) - http://www.bohemiancoding.com/sketch -->
    <title>Stockholm-icons / Electric / Outlet</title>
    <desc>Created with Sketch.</desc>
    <g id="Stockholm-icons-/-Electric-/-Outlet" stroke="none" stroke-width="1" fill="none" fill-rule="evenodd">
        <rect id="bound" x="0" y="0" width="24" height="24"></rect>
        <path d="M15,4 C15.5522847,4 16,4.44771525 16,5 L16,9 L14,9 L14,5 C14,4.44771525 14.4477153,4 15,4 Z M9,4 C9.55228475,4 10,4.44771525 10,5 L10,9 L8,9 L8,5 C8,4.44771525 8.44771525,4 9,4 Z" id="Combined-Shape" fill="#335EEA" opacity="0.3"></path>
        <path d="M13,16.9291111 L13,22 L11,22 L11,16.9291111 C7.60770586,16.4438815 5,13.5264719 5,10 L5,9 L19,9 L19,10 C19,13.5264719 16.3922941,16.4438815 13,16.9291111 Z" id="Combined-Shape" fill="#335EEA"></path>
    </g>
</svg>

<svg width="24" height="24" viewBox="0 0 24 24" xmlns="http://www.w3.org/2000/svg"><g fill="none" fill-rule="evenodd"><path d="M0 0h24v24H0z"/><path d="M15 4a1 1 0 011 1v4h-2V5a1 1 0 011-1zM9 4a1 1 0 011 1v4H8V5a1 1 0 011-1z" fill="#335EEA" opacity=".3"/><path d="M13 16.93V22h-2v-5.07A7.002 7.002 0 015 10V9h14v1a7.002 7.002 0 01-6 6.93z" fill="#335EEA"/></g></svg>
